X: 1070
T: Hisarbûselik Aranağme (Türkaksağı)
C: ?
O: Turkey
F: http://compmusic.upf.edu/node/140
N: hisarbuselik--aranagme--turkaksagi--1--
N: makam= hisarbuselik
N: form= aranagme
N: usul= turkaksagi = 5/8
M: 5/8
L: 1/16
K: C _1/4B   
Q: 1/4=120
%%MIDI tuningsystem comma53
A4 e6 | (3fef (3a^gfe4z2  | e2d2 c4 G2 | \
w:  ARANAĞME  |   |   | 
(3c=Bc (3edcB4z2  | 
w:   | 
.c2.A2 G4 ^1/4F2 | (3^1/4FEF (3AGFE4z2  | \
w:   |   | 
.E2.A2 .c2.e2 d2 | c=B A^GA4z2  | 
w:   |   | 
A4 e6 | (3fef (3a^gfe4z2  | e2d2 c4 G2 | \
w:  ARANAĞME  |   |   | 
(3c=Bc (3edcB4z2  | 
w:   | 
.c2.A2 G4 ^1/4F2 | (3^1/4FEF (3AGFE4z2  | \
w:   |   | 
.E2.A2 .c2.e2 d2 | c=B A^GA4z2  | 
w:   |   | 
|


